X:518
T:Polska # 518
T: efter fadern
Q: 110
M:3/4
L:1/16
K: D
A2d2 F2A2 (GF)ED| D2d2 F2A2 (GF)ED| D2d2 d2f2 (af)ef| (eg)ec (AB)cd (ef)ge|
[K:A]e2d2 d2f2 (ag)fg| (eg)ec (AB)cd (ef)ga| b2bg a2af (gf)ga| (bg)ec c2d2 d4 :|
|: e2a2 c2e2 (dc)BA| A2a2 c2e2 (dc)BA| eac'a eac'a eac'a| ebd'b ebd'b ebd'b|
eac'a eac'a eac'a| ebd'b ebd'b ebd'b| e2fg (ag)ae (dc)BA| (cB)AG A8:|

